X:17395
T:Thomas Birket's Jigg. BF11.44
M:6/8
L:1/8
C:Browne A hand
S:MS11,c1800.,Browne Coll.,Lakes
R:Jig
O:England
A:Lakes
N:1.  This note illegible
Z:vmp.Cherri Graebe.
K:G major
G2BA2c|B2g gfe|d2cB2A|ABA F2D|!G2BA2c|B2g gf"1"e|d2cB2A|G3G3:|!
|:c2AB2G|ABA F2D|C2EB,2D|A,2DG,3|!c2AB2G|ABA F2D|E2B cAF|G3G3||
